icons/hamburger-menu.svg

<svg clip-rule="evenodd" fill-rule="evenodd" stroke-linejoin="round" stroke-miterlimit="2" viewBox="0 0 24 24" xmlns="http://www.w3.org/2000/svg"><path d="m22 16.75c0-.414-.336-.75-.75-.75h-18.5c-.414 0-.75.336-.75.75s.336.75.75.75h18.5c.414 0 .75-.336.75-.75zm0-5c0-.414-.336-.75-.75-.75h-18.5c-.414 0-.75.336-.75.75s.336.75.75.75h18.5c.414 0 .75-.336.75-.75zm0-5c0-.414-.336-.75-.75-.75h-18.5c-.414 0-.75.336-.75.75s.336.75.75.75h18.5c.414 0 .75-.336.75-.75z" fill-rule="nonzero"/></svg>

<?xml version="1.0" encoding="utf-8"?>
<!-- Generator: Adobe Illustrator 28.2.0, SVG Export Plug-In . SVG Version: 6.00 Build 0)  -->
<svg version="1.1" id="Layer_1" xmlns="http://www.w3.org/2000/svg" xmlns:xlink="http://www.w3.org/1999/xlink" x="0px" y="0px"
	 viewBox="0 0 24 24" style="enable-background:new 0 0 24 24;" xml:space="preserve">
<style type="text/css">
	.st0{fill:#0035A9;}
</style>
<path class="st0" d="M22,16.8c0-0.4-0.3-0.8-0.8-0.8H2.8C2.3,16,2,16.3,2,16.8s0.3,0.8,0.8,0.8h18.5C21.7,17.5,22,17.2,22,16.8z
	 M22,11.8c0-0.4-0.3-0.8-0.8-0.8H2.8C2.3,11,2,11.3,2,11.8s0.3,0.8,0.8,0.8h18.5C21.7,12.5,22,12.2,22,11.8z M22,6.8
	C22,6.3,21.7,6,21.2,6H2.8C2.3,6,2,6.3,2,6.8s0.3,0.8,0.8,0.8h18.5C21.7,7.5,22,7.2,22,6.8z"/>
</svg>
